X: 28158
T: Mrs Lily Christie
R: jig
M: 6/8
K: Dmajor
|:A|d2f A2d|Ada fed|G3 g2f|efd cBA|
d2f A2d|Ada fed|G3 gee|Aec d2||
|:g|aga f2A|dfa fdd|g2G Bgf|efd cBA|
[1 aga f2A|dfa fdd|G3 gee|Aec d2:|
[2 d2f A2d|Ada fed|G3 gee|Aec d2||
|:A|d3 Adf|Afa fdd|B3 Ggf|efd cBA|
d3 Adf|Afa fdd|G3 gee|Aec d2:|
|:a2a a3|Aaa fed|geg fdf|efd cBA|
[1 a2a a3|Aaa fed|G3 gee|Aec d2:|
[2 d3 Adf|Afa fdd|G3 gee|Aec d2||

